docs/.gitbook/assets/icon-move-16@dark.svg

<svg width="32" height="32" viewBox="0 0 16 16" fill="none" xmlns="http://www.w3.org/2000/svg">
<rect x="0" y="0" width="16" height="16" fill="#181c1f"/>
<path fill-rule="evenodd" clip-rule="evenodd" d="M5.65298 2.95809C5.35373 3.24449 5.34331 3.71925 5.62971 4.01849C5.91611 4.31774 6.39087 4.32816 6.69012 4.04176L7.24998 3.50594V7.25002H3.50599L4.04182 6.69018C4.32823 6.39093 4.31782 5.91617 4.01858 5.62977C3.71934 5.34336 3.24458 5.35377 2.95818 5.65301L1.20818 7.48144C0.930608 7.77145 0.930608 8.22859 1.20818 8.5186L2.95818 10.347C3.24458 10.6463 3.71934 10.6567 4.01858 10.3703C4.31782 10.0839 4.32823 9.60911 4.04182 9.30986L3.50599 8.75002L7.24998 8.75002V12.494L6.69013 11.9582C6.39089 11.6718 5.91613 11.6822 5.62972 11.9814C5.34332 12.2807 5.35372 12.7554 5.65297 13.0418L7.48139 14.7918C7.7714 15.0694 8.22855 15.0694 8.51856 14.7918L10.347 13.0418C10.6462 12.7554 10.6566 12.2807 10.3702 11.9814C10.0838 11.6822 9.60906 11.6718 9.30982 11.9582L8.74997 12.494L8.74998 8.75002L12.494 8.75002L11.9582 9.30986C11.6718 9.6091 11.6822 10.0839 11.9814 10.3703C12.2807 10.6567 12.7554 10.6463 13.0418 10.347L14.7918 8.5186C15.0694 8.22859 15.0694 7.77145 14.7918 7.48144L13.0418 5.65301C12.7554 5.35377 12.2807 5.34336 11.9814 5.62977C11.6822 5.91617 11.6718 6.39093 11.9582 6.69018L12.494 7.25002H8.74998L8.74997 3.50597L9.30982 4.04179C9.60907 4.32819 10.0838 4.31778 10.3702 4.01854C10.6566 3.7193 10.6462 3.24453 10.347 2.95813L8.51855 1.20817C8.22855 0.930612 7.77141 0.930609 7.4814 1.20817L5.65298 2.95809Z" fill="#fff"/>
</svg>

<svg xmlns="http://www.w3.org/2000/svg" width="32" height="32" fill="none" viewBox="0 0 16 16"><path fill="#181c1f" d="M0 0h16v16H0z"/><path fill="#fff" fill-rule="evenodd" d="M5.653 2.958A.75.75 0 1 0 6.69 4.042l.56-.536V7.25H3.506l.536-.56a.75.75 0 0 0-1.084-1.037l-1.75 1.828a.75.75 0 0 0 0 1.038l1.75 1.828A.75.75 0 1 0 4.042 9.31l-.536-.56H7.25v3.744l-.56-.536a.75.75 0 0 0-1.037 1.084l1.828 1.75a.75.75 0 0 0 1.038 0l1.828-1.75a.75.75 0 0 0-1.037-1.084l-.56.536V8.75h3.744l-.536.56a.75.75 0 0 0 1.084 1.037l1.75-1.828a.75.75 0 0 0 0-1.038l-1.75-1.828a.75.75 0 1 0-1.084 1.037l.536.56H8.75V3.506l.56.536a.75.75 0 1 0 1.037-1.084l-1.828-1.75a.75.75 0 0 0-1.038 0z" clip-rule="evenodd"/></svg>
